assets/Raising hands/Light/Flat/raising_hands_flat_light.svg

<svg width="32" height="32" viewBox="0 0 32 32" fill="none" xmlns="http://www.w3.org/2000/svg">
<path d="M9.51282 13C9.51739 12.0608 8.95851 11.2865 8.01282 11.25C7.04704 11.2127 6.33417 12.0342 6.29688 13V13.6358C6.00663 13.2637 5.54579 13.034 5.03864 13.0593C4.21124 13.1005 3.47162 13.6726 3.51282 14.5V16C3.20646 15.7431 2.9677 15.5801 2.53937 15.6314C1.38033 15.7702 0.914337 16.6775 1.01282 17.5L2.01282 25C2.51282 27.5 4.58139 30 7.51282 30C9.51282 30 11.527 28.4434 12.0128 26.5C12.852 23.1435 15.0986 19.9531 15.0986 19.9531C16.0986 18.4531 15.0128 17 14.0128 17C13.5128 17 12.5128 17 12.0128 18.5L12.5128 14C12.604 13.0378 11.755 12.3203 11.0128 12.25C10.4077 12.1927 9.8695 12.5613 9.51282 13Z" fill="#FFD7C2"/>
<path d="M22.5 13C22.4954 12.0608 23.0543 11.2865 24 11.25C24.9658 11.2127 25.6787 12.0342 25.7159 13V13.6358C26.0062 13.2637 26.467 13.034 26.9742 13.0593C27.8016 13.1005 28.5412 13.6726 28.5 14.5V16C28.8064 15.7431 29.0451 15.5801 29.4735 15.6314C30.6325 15.7702 31.0985 16.6775 31 17.5L30 25C29.5 27.5 27.4314 30 24.5 30C22.5 30 20.4859 28.4434 20 26.5C19.1609 23.1435 16.9142 19.9531 16.9142 19.9531C15.9142 18.4531 17 17 18 17C18.5 17 19.5 17 20 18.5L19.5 14C19.4088 13.0378 20.2578 12.3203 21 12.25C21.6051 12.1927 22.1433 12.5613 22.5 13Z" fill="#FFD7C2"/>
<path d="M11.1676 12.2737C11.1157 12.2628 11.064 12.2549 11.0128 12.25C10.4234 12.1942 9.89737 12.5426 9.54084 12.9662C9.52541 13.0382 9.51286 13.113 9.50356 13.1905C9.42551 13.8409 9.27616 16.7851 9.23464 18.0619C9.22566 18.3379 9.44212 18.5689 9.71812 18.5779C9.99412 18.5869 10.2251 18.3704 10.2341 18.0944C10.2759 16.8087 10.4245 13.9092 10.4964 13.3096C10.563 12.7548 10.8538 12.4942 11.1676 12.2737Z" fill="#F1B99B"/>
<path d="M6.29688 13.6306V13C6.30508 12.7877 6.34594 12.5823 6.41495 12.3916C6.78284 12.5699 7.0627 12.9404 7.24646 13.2706C7.45575 13.6466 7.61205 14.0994 7.64662 14.5044C7.72121 15.3781 7.78315 17.2818 7.76552 18.1585C7.75997 18.4346 7.53166 18.6539 7.25557 18.6484C6.97948 18.6428 6.76017 18.4145 6.76572 18.1384C6.78265 17.2968 6.72185 15.4282 6.65025 14.5895C6.63014 14.3539 6.52862 14.0371 6.37267 13.7569C6.34722 13.7111 6.32186 13.6691 6.29688 13.6306Z" fill="#F1B99B"/>
<path d="M3.46307 15.9587C3.47948 15.9722 3.49605 15.986 3.51282 16V14.8068C3.89691 14.9393 4.21837 15.2694 4.44072 15.5719C4.69557 15.9187 4.9075 16.3482 4.99267 16.7457C5.17652 17.6038 5.36095 18.7714 5.45051 19.6443C5.47869 19.919 5.27885 20.1646 5.00415 20.1928C4.72945 20.2209 4.48392 20.0211 4.45573 19.7464C4.36988 18.9096 4.19111 17.7778 4.01486 16.9552C3.96532 16.724 3.82483 16.4225 3.63492 16.1641C3.57488 16.0824 3.51693 16.0144 3.46307 15.9587Z" fill="#F1B99B"/>
<path d="M12.0771 18.3222C12.5943 17 13.5334 17 14.0128 17C14.2047 17 14.3998 17.0536 14.5827 17.1507L14.5865 17.1845C14.2631 17.2204 13.9116 17.3537 13.6046 17.6592C13.2966 17.9657 13.002 18.4773 12.8516 19.322C12.8033 19.5939 12.5436 19.7751 12.2718 19.7267C11.9999 19.6783 11.8187 19.4187 11.8671 19.1468C11.9205 18.8468 11.9912 18.5724 12.0771 18.3222Z" fill="#F1B99B"/>
<path d="M22.4464 12.9362C22.0905 12.5263 21.5755 12.1955 21 12.25C20.944 12.2553 20.8874 12.2643 20.8307 12.2768C21.1428 12.4967 21.4311 12.7574 21.4974 13.3096C21.5693 13.9092 21.7179 16.8087 21.7597 18.0944C21.7687 18.3704 21.9997 18.5869 22.2757 18.5779C22.5517 18.5689 22.7682 18.3379 22.7592 18.0619C22.7177 16.7851 22.5683 13.8409 22.4903 13.1905C22.4797 13.1022 22.4649 13.0175 22.4464 12.9362Z" fill="#F1B99B"/>
<path d="M17.4099 17.1616C17.5986 17.0576 17.801 17 18 17C18.4424 17 19.2762 17 19.8088 18.039C19.9446 18.3612 20.0524 18.7292 20.1267 19.1468C20.1751 19.4187 19.9939 19.6783 19.7221 19.7267C19.4502 19.7751 19.1906 19.5939 19.1422 19.322C18.9919 18.4773 18.6973 17.9657 18.3892 17.6592C18.0823 17.3537 17.7307 17.2204 17.4074 17.1845L17.4099 17.1616Z" fill="#F1B99B"/>
<path d="M28.5 14.8004V15.9914C28.4551 16.0404 28.4077 16.0977 28.3589 16.1641C28.169 16.4225 28.0285 16.724 27.979 16.9552C27.8928 17.3573 27.7826 18.0531 27.6925 18.6613C27.6478 18.9627 27.6087 19.238 27.5808 19.4381C27.5668 19.5381 27.5557 19.6193 27.548 19.6753L27.5364 19.7606L27.5363 19.7616C27.4995 20.0353 27.2478 20.2277 26.9741 20.1909C26.7004 20.1541 26.5084 19.9025 26.5451 19.6288L26.5572 19.5399C26.565 19.483 26.5763 19.401 26.5904 19.2999C26.6186 19.0979 26.6581 18.8196 26.7033 18.5147C26.7928 17.9106 26.9073 17.1839 27.0012 16.7457C27.0863 16.3482 27.2982 15.9187 27.5531 15.5719C27.7791 15.2644 28.1075 14.9284 28.5 14.8004Z" fill="#F1B99B"/>
<path d="M25.5951 12.3839C25.6658 12.5768 25.7076 12.7848 25.7159 13V13.6018C25.6849 13.6479 25.6531 13.6995 25.6212 13.7569C25.4652 14.0371 25.3637 14.3539 25.3436 14.5895C25.3086 14.9995 25.2795 15.8834 25.2592 16.6815C25.2492 17.0769 25.2414 17.4458 25.2361 17.7159C25.2335 17.8509 25.2315 17.9612 25.2302 18.0376L25.2282 18.1561C25.2237 18.4322 24.9963 18.6529 24.7202 18.6484C24.4441 18.644 24.2238 18.4166 24.2283 18.1405L24.2303 18.0201C24.2317 17.9431 24.2337 17.8321 24.2363 17.6964C24.2416 17.425 24.2494 17.054 24.2596 16.6561C24.2796 15.8675 24.3091 14.9506 24.3472 14.5044C24.3818 14.0994 24.5381 13.6466 24.7474 13.2706C24.9338 12.9356 25.2192 12.5591 25.5951 12.3839Z" fill="#F1B99B"/>
<path d="M15.5318 8.75156L14.7533 6.67556C14.6308 6.34869 14.8724 6 15.2215 6H16.7785C17.1276 6 17.3692 6.34869 17.2467 6.67556L16.4682 8.75156C16.306 9.18415 15.6941 9.18415 15.5318 8.75156Z" fill="#46A4FB"/>
<path d="M19.0919 9.29485L19.7771 7.18619C19.8849 6.85417 20.2912 6.73211 20.5642 6.94969L21.7818 7.92013C22.0548 8.13772 22.0264 8.561 21.7268 8.74022L19.8241 9.87844C19.4277 10.1156 18.9492 9.73424 19.0919 9.29485Z" fill="#46A4FB"/>
<path d="M12.9081 9.29485L12.223 7.18619C12.1151 6.85417 11.7088 6.73211 11.4358 6.94969L10.2182 7.92013C9.94521 8.13772 9.97357 8.561 10.2732 8.74022L12.1759 9.87844C12.5723 10.1156 13.0508 9.73424 12.9081 9.29485Z" fill="#46A4FB"/>
</svg>

<svg xmlns="http://www.w3.org/2000/svg" width="32" height="32" fill="none"><path fill="#FFD7C2" d="M9.513 13c.004-.94-.554-1.713-1.5-1.75-.966-.037-1.679.784-1.716 1.75v.636a1.498 1.498 0 0 0-1.258-.577c-.828.042-1.567.614-1.526 1.441V16c-.307-.257-.545-.42-.974-.369-1.159.14-1.625 1.046-1.526 1.869l1 7.5c.5 2.5 2.568 5 5.5 5 2 0 4.014-1.557 4.5-3.5.839-3.357 3.086-6.547 3.086-6.547 1-1.5-.086-2.953-1.086-2.953-.5 0-1.5 0-2 1.5l.5-4.5c.091-.962-.758-1.68-1.5-1.75-.605-.057-1.143.311-1.5.75ZM22.5 13c-.005-.94.554-1.713 1.5-1.75.966-.037 1.679.784 1.716 1.75v.636c.29-.372.751-.602 1.258-.577.828.042 1.567.614 1.526 1.441V16c.306-.257.545-.42.974-.369 1.159.14 1.625 1.046 1.526 1.869L30 25c-.5 2.5-2.569 5-5.5 5-2 0-4.014-1.557-4.5-3.5-.84-3.357-3.086-6.547-3.086-6.547C15.914 18.453 17 17 18 17c.5 0 1.5 0 2 1.5l-.5-4.5c-.091-.962.758-1.68 1.5-1.75.605-.057 1.143.311 1.5.75Z"/><path fill="#F1B99B" d="M11.168 12.274a1.404 1.404 0 0 0-.155-.024c-.59-.056-1.116.293-1.472.716a2.48 2.48 0 0 0-.037.225c-.078.65-.228 3.594-.27 4.87a.5.5 0 0 0 1 .033c.042-1.285.19-4.185.262-4.784.067-.555.358-.816.672-1.036ZM6.297 13.63V13c.008-.212.049-.418.118-.608.368.178.648.548.831.879.21.376.366.828.4 1.233.075.874.137 2.778.12 3.655a.5.5 0 0 1-1-.02c.017-.842-.044-2.71-.116-3.55a2.247 2.247 0 0 0-.353-.958ZM3.463 15.959l.05.041v-1.193c.384.132.705.462.928.765.255.347.466.776.552 1.174.184.858.368 2.025.458 2.898a.5.5 0 0 1-.995.102 29.104 29.104 0 0 0-.441-2.79 2.247 2.247 0 0 0-.552-.997ZM12.077 18.322C12.594 17 13.533 17 14.013 17c.192 0 .387.054.57.15l.003.035c-.323.035-.674.169-.981.474-.308.307-.603.818-.753 1.663a.5.5 0 1 1-.985-.175c.053-.3.124-.575.21-.825ZM22.446 12.936c-.356-.41-.87-.74-1.446-.686a1.4 1.4 0 0 0-.17.027c.313.22.601.48.667 1.033.072.6.22 3.499.263 4.784a.5.5 0 0 0 1-.032c-.042-1.277-.192-4.221-.27-4.872a2.474 2.474 0 0 0-.044-.254ZM17.41 17.162A1.23 1.23 0 0 1 18 17c.442 0 1.276 0 1.809 1.039.136.322.243.69.318 1.108a.5.5 0 1 1-.985.175c-.15-.845-.445-1.356-.753-1.663a1.626 1.626 0 0 0-.982-.474l.003-.023ZM28.5 14.8v1.191a2.246 2.246 0 0 0-.521.964 32.689 32.689 0 0 0-.287 1.706l-.111.777-.033.237-.012.086a.5.5 0 0 1-.99-.132l.011-.09a104.362 104.362 0 0 1 .146-1.024c.09-.604.204-1.331.298-1.77.085-.397.297-.826.552-1.173.226-.308.555-.644.947-.772ZM25.595 12.384c.07.193.113.4.12.616v.602a2.246 2.246 0 0 0-.372.988c-.034.41-.064 1.293-.084 2.091a186.127 186.127 0 0 0-.029 1.357l-.002.118a.5.5 0 0 1-1-.015l.002-.12.006-.325c.006-.271.013-.642.024-1.04.02-.788.05-1.705.087-2.152.035-.405.191-.857.4-1.233.187-.335.472-.712.848-.887Z"/><path fill="#46A4FB" d="m15.532 8.752-.779-2.076A.5.5 0 0 1 15.222 6h1.557a.5.5 0 0 1 .468.676l-.779 2.076a.5.5 0 0 1-.936 0ZM19.092 9.295l.685-2.109a.5.5 0 0 1 .787-.236l1.218.97a.5.5 0 0 1-.055.82l-1.903 1.138a.5.5 0 0 1-.732-.583ZM12.908 9.295l-.685-2.109a.5.5 0 0 0-.787-.236l-1.218.97a.5.5 0 0 0 .055.82l1.903 1.138a.5.5 0 0 0 .732-.583Z"/></svg>
